dist/images/nav-lessons.svg

<svg width="24" height="24" viewBox="0 0 24 24" fill="none" xmlns="http://www.w3.org/2000/svg">
<g clip-path="url(#clip0_2940_5550)">
<path d="M23.4669 2.83335L12.17 0.0208512C12.0584 -0.00698092 11.9417 -0.00698092 11.8301 0.0208512L0.533265 2.83335C0.380985 2.87127 0.245765 2.95904 0.14913 3.08269C0.0524955 3.20634 0 3.35876 0 3.51569C0 3.67262 0.0524955 3.82504 0.14913 3.94869C0.245765 4.07233 0.380985 4.1601 0.533265 4.19802L11.8301 7.01052C11.886 7.0243 11.9429 7.03124 12.0001 7.03124C12.0572 7.03124 12.1142 7.0243 12.17 7.01057L22.5938 4.41515V7.73437C22.5938 8.12273 22.9086 8.43749 23.2969 8.43749C23.6853 8.43749 24.0001 8.12273 24.0001 7.73437V3.51562C24.0001 3.3587 23.9476 3.2063 23.8509 3.08267C23.7543 2.95903 23.6191 2.87127 23.4669 2.83335Z" fill="#D5DFF2"/>
<path d="M12.5096 8.37506C12.3432 8.41645 12.1718 8.4375 12 8.4375C11.8282 8.4375 11.6569 8.41641 11.4902 8.37506L3.5625 6.40134V13.125H20.4375V6.40134L12.5096 8.37506ZM24 15.2344C24 14.846 23.6852 14.5313 23.2969 14.5313H3.51562C1.57711 14.5313 0 16.1084 0 18.0469C0 19.9854 1.57711 21.5625 3.51562 21.5625H23.2969C23.6852 21.5625 24 21.2477 24 20.8594C24 20.471 23.6852 20.1562 23.2969 20.1562H3.51562C2.35252 20.1562 1.40625 19.2099 1.40625 18.0469C1.40625 16.8838 2.35256 15.9375 3.51562 15.9375H23.2969C23.6852 15.9375 24 15.6227 24 15.2344Z" fill="#D5DFF2"/>
<path d="M2.8125 18.0469C2.8125 18.4347 3.12797 18.75 3.51562 18.75H22.5938V17.3438H3.51562C3.12797 17.3438 2.8125 17.6592 2.8125 18.0469Z" fill="#D5DFF2"/>
</g>
<defs>
<clipPath id="clip0_2940_5550">
<rect width="24" height="24" fill="white"/>
</clipPath>
</defs>
</svg>

<svg width="24" height="24" fill="none" xmlns="http://www.w3.org/2000/svg"><g clip-path="url(#clip0_2940_5550)" fill="#D5DFF2"><path d="M23.467 2.833L12.17.021a.702.702 0 00-.34 0L.533 2.833a.703.703 0 000 1.365L11.83 7.011a.71.71 0 00.34 0l10.424-2.596v3.32a.703.703 0 101.406 0v-4.22a.703.703 0 00-.533-.682z"/><path d="M12.51 8.375a2.113 2.113 0 01-1.02 0L3.562 6.401v6.724h16.875V6.401L12.51 8.375zM24 15.235a.703.703 0 00-.703-.704H3.516A3.52 3.52 0 000 18.047a3.52 3.52 0 003.516 3.515h19.78a.703.703 0 000-1.406H3.517a2.112 2.112 0 01-2.11-2.11c0-1.162.947-2.108 2.11-2.108h19.78a.703.703 0 00.704-.704z"/><path d="M2.813 18.047c0 .388.315.703.703.703h19.078v-1.406H3.516a.704.704 0 00-.704.703z"/></g><defs><clipPath id="clip0_2940_5550"><path fill="#fff" d="M0 0h24v24H0z"/></clipPath></defs></svg>
